X:7021
T:Glen Aln
R:Hornpipe
C:Will Atkinson (1908-2003)
O:England, Northumberland
Z:Paul Hardy's Session Tunebook 2015 (see www.paulhardy.net). Creative Commons cc by-nc-sa licenced.
M:4/4
L:1/8
Q:1/4=110
K:Gmaj
(3DEF|"G"GDB,D GBdB|"C"gf (3efg "G"dBGF|"C"EGce "G"DGBd|"D"Agfe "G"(3ded "D7"(3cBA|
"G"GDB,D GBdB|"C"gf (3efg "G"dBGF|"C"EecA "G"DdBG|"D"(3FED "D7"(3cBA "G"G2:|
|:Bc|"G"dBGB dBgd|"C"(3efg dg "G"BdGB|"Am"cAaA cAag|"C"(3fga (3gfe "G"(3ded Bc|
"G"dBGB dBgd|"C"(3efg dg "G"BgGF|"C"EecA "G"DdBG|"D"(3FED "D7"(3cBA "G"G2:|

